X: 23256
T: Leaving Glen Affric
R: waltz
M: 3/4
K: Amixolydian
M:6/8
A>GB c<Ac|e>fA f2a|e2f f<ce/>c/|B>Ac B2 e|
A>GB c<Ac|e>fA f2a|e2f f<ce/>c/|B>Ac A2 !invisible!|1 e:|2 f||
f>ef/<a/ e2f|f>ef/<a/ a2f|f>ef/<a/ A2c|c2e/>c/B2e|
A2B c<Ac|e>fA f2a|e2f f<ce/>c/|B>Ac A2 !invisible!|1 f:|2 e||

